X:5
T:Jack Gardners Crew
A:George Edwards
B:Folksongs of the Catskills
C:Norman Cazden, Herbert Haufrecht & Norman Studer
L:1/8
M:6/8
N:Edited and Annotated, With a Study of Tune Formation and Relationships,
N:Folk Songs of the Catskills
N:by Norman Cazden, Herbert Haufrecht and Norman Studer
O:Catskills Mountain Region
Q:1/4=70
R:Double Jig
S:Catskill Mountains Region
Z:Jackie Fritts
K:D minor
G|DG3/G/ FGA|BAG GD3/D/|
w:Kind friends, pay at-ten-tion to all I do men-tion; it's
GGG DC3/C/|DEF G2 G|DG3/G/ FGA|
w:on-ly a few words I'm go-ing to say in praise of a man, and his
GA3/A/ GDD|GGG DCC|
w:name I will men-tion: Jack Gard-ner, the cham-pi-on
DEFG3|dd3/c/ d2G/G/|BA3/A/ GD2|
w:boy of the day. He was a youth when he came here to lum-ber,
ddB cdG|BAG D2G|
w:Down in the dance-room his wife he first knew. There
DG3/G/ FGA|BA3/G/ ADD|
w:gave out a fel-low that can't tell the num-ber, But
GGG DCC/C/|DEF G2|]
w:Gard-ner and Quin-cy was the best of the crew.